findly-builder/apps/searchassist/src/assets/icons/overview/faqs.svg

<svg width="22" height="22" viewBox="0 0 22 22" fill="none" xmlns="http://www.w3.org/2000/svg">
<path d="M6.87484 18.3333H17.4165L20.1665 21.0833V11.4583C20.1665 10.45 19.3415 9.625 18.3332 9.625H6.87484C5.8665 9.625 5.0415 10.45 5.0415 11.4583V16.5C5.0415 17.5083 5.8665 18.3333 6.87484 18.3333Z" fill="#558B2F"/>
<path d="M13.1999 15.0334H11.5499L11.229 15.9959H10.2207L11.9165 11.4126H12.7874L14.4832 15.9959H13.4749L13.1999 15.0334ZM11.779 14.3001H12.9249L12.3749 12.5584L11.779 14.3001Z" fill="#1B5E20"/>
<path d="M15.1252 11.4585H4.5835L1.8335 14.2085V3.66683C1.8335 2.6585 2.6585 1.8335 3.66683 1.8335H15.1252C16.1335 1.8335 16.9585 2.6585 16.9585 3.66683V9.62516C16.9585 10.6335 16.1335 11.4585 15.1252 11.4585Z" fill="#8BC34A"/>
<path d="M11.6417 6.50827C11.6417 6.9666 11.5501 7.33327 11.4126 7.6541C11.2751 7.97494 11.0917 8.24994 10.8167 8.43327L11.5959 9.0291L11.0001 9.5791L9.99173 8.79994C9.90006 8.79994 9.76256 8.84577 9.62506 8.84577C9.35006 8.84577 9.07507 8.79994 8.80007 8.70827C8.5709 8.6166 8.34173 8.43327 8.1584 8.24994C7.97506 8.0666 7.83756 7.7916 7.7459 7.5166C7.65423 7.2416 7.6084 6.92077 7.6084 6.5541V6.37077C7.6084 6.0041 7.65423 5.68327 7.7459 5.40827C7.83756 5.13327 7.97506 4.85827 8.1584 4.67493C8.34173 4.4916 8.52507 4.30827 8.80007 4.2166C9.02923 4.12493 9.30423 4.0791 9.62506 4.0791C9.90006 4.0791 10.1751 4.12493 10.4501 4.2166C10.6792 4.30827 10.9084 4.4916 11.0917 4.67493C11.2751 4.85827 11.4126 5.13327 11.5042 5.40827C11.5959 5.68327 11.6417 6.0041 11.6417 6.37077V6.50827ZM10.6334 6.2791C10.6334 5.77494 10.5417 5.40827 10.3584 5.1791C10.1751 4.9041 9.9459 4.81244 9.62506 4.81244C9.30423 4.81244 9.02923 4.94994 8.89173 5.1791C8.7084 5.4541 8.61673 5.82077 8.61673 6.2791V6.50827C8.61673 6.73744 8.66256 6.9666 8.7084 7.14994C8.75423 7.33327 8.80006 7.5166 8.89173 7.60827C8.9834 7.74577 9.07507 7.83744 9.21257 7.88327C9.35006 7.9291 9.48756 7.97494 9.62506 7.97494C9.9459 7.97494 10.2209 7.83744 10.3584 7.60827C10.5417 7.33327 10.6334 6.9666 10.6334 6.46244V6.2791Z" fill="white"/>
</svg>

<svg width="22" height="22" fill="none" xmlns="http://www.w3.org/2000/svg"><path d="M6.875 18.333h10.541l2.75 2.75v-9.625a1.839 1.839 0 0 0-1.833-1.833H6.875a1.839 1.839 0 0 0-1.833 1.833V16.5c0 1.008.825 1.833 1.833 1.833Z" fill="#558B2F"/><path d="M13.2 15.033h-1.65l-.321.963h-1.008l1.695-4.583h.871l1.696 4.583h-1.008l-.275-.963Zm-1.421-.733h1.146l-.55-1.742-.596 1.742Z" fill="#1B5E20"/><path d="M15.125 11.459H4.584l-2.75 2.75V3.667c0-1.008.825-1.833 1.833-1.833h11.458c1.009 0 1.834.825 1.834 1.833v5.958a1.839 1.839 0 0 1-1.834 1.834Z" fill="#8BC34A"/><path d="M11.642 6.508c0 .459-.092.825-.23 1.146-.137.32-.32.596-.595.78l.779.595-.596.55-1.008-.78c-.092 0-.23.047-.367.047-.275 0-.55-.046-.825-.138-.23-.091-.458-.275-.642-.458-.183-.183-.32-.458-.412-.733a3.047 3.047 0 0 1-.138-.963v-.183c0-.367.046-.688.138-.963.092-.275.23-.55.412-.733.184-.183.367-.367.642-.458a2.22 2.22 0 0 1 .825-.138c.275 0 .55.046.825.138.23.091.458.275.642.458.183.183.32.458.412.733.092.275.138.596.138.963v.137Zm-1.009-.229c0-.504-.091-.87-.275-1.1-.183-.275-.412-.367-.733-.367-.32 0-.596.138-.733.367-.184.275-.275.642-.275 1.1v.23c0 .228.046.458.091.64.046.184.092.368.184.46.091.137.183.228.32.274.138.046.276.092.413.092.32 0 .596-.138.733-.367.184-.275.275-.641.275-1.146V6.28Z" fill="#fff"/></svg>
